!!!!SEGMENT: pl-kk--kk-i-1--006-001_morales-cristobal-de--missa-ave-maria-kyrie.krn
!!!cenid: 15xx:678
!!!COM: Morales, Cristóbal de
!!!COM-rismID:
!!!CDT:
!!!CNT:
!!!OPR: [Missa] Ave Maria
!!!OTL: Kyrie
!!!OMV: 001
!!!PDT:
!!!AGN:
!!!SMS-siglum: PL-Kk
!!!SMS-shelfmark: Kk.I.1
!!!SMS-shelfwork: 006-001 M
!!!SMS-variant:
!!!SMS-altvar:
!!!NIFC-rismSourceID: 300257960
!!!NIFC-islandoraID: pl-kk:1
!!!URL-pdf-islandora: https://repozytorium.nifc.pl/islandora/object/pl-kk%3A1/datastream/PDF/view
!!!URL-scan: https://polish.musicsources.pl/pl/lokalizacje/galeria/rekopisy/5736 @EN{Scan on Polish Music Herritage in Open Access Website} @PL{Skany w portalu Dziedzictwo Muzyki Polskiej w otwartym dostępie}
!!!ONB-nifc: UWAGA: Cantus (s. 41v-52v, skan 0044-0055), Altus (s. 43r-52r, skan 0235-0244), Tenor (s. 42r-51r, skan 0430-0439), Bassus (s. 40v-50v, skan 0602-0612). Części Mszy: 1. Kyrie, 2. Et in terra, 3. Patrem, 4. Sanctus, 5. Agnus Dei
!!!AIN: 1 alto 1 bass 1 soprn 1 tenor
!!!key: g:dor
!!!finalis: g
**kern	**text	**kern	**text	**kern	**text	**kern	**text
*part4	*part4	*part3	*part3	*part2	*part2	*part1	*part1
*staff4	*staff4	*staff3	*staff3	*staff2	*staff2	*staff1	*staff1
*ICvox	*	*ICvox	*	*ICvox	*	*ICvox	*
*Ibass	*	*Itenor	*	*Ialto	*	*Isoprn	*
*I"BASSVS	*	*I"TENOR	*	*I"ALTVS	*	*I"CANTVS	*
*I'B	*	*I'T	*	*I'A	*	*I'S	*
*clefF4	*	*clefC4	*	*clefC4	*	*clefC3	*
*k[b-]	*	*k[b-]	*	*k[b-]	*	*k[b-]	*
*g:dor	*	*g:dor	*	*g:dor	*	*g:dor	*
*M2/1	*	*M2/1	*	*M2/1	*	*M2/1	*
*met(C|)	*	*met(C|)	*	*met(C|)	*	*met(C|)	*
=1-	=1-	=1-	=1-	=1-	=1-	=1-	=1-
!LO:TX:t=P:problem=2\middle	!	!LO:TX:t=P:problem=2\middle	!	!LO:TX:t=P:problem=2\middle	!	!LO:TX:t=P:problem=2\middle	!
!	!	!LO:TX:a:t=12	!	!	!	!	!
!LO:TX:a:t=Aue Maria. \ngratia.:rj:color=red	!	!LO:TX:a:t=Ave MARIA ..:color=red	!	!LO:TX:a:t=Aue Ma\nria. *:rj:color=red	!	!LO:TX:a:t=Aue Ma\nria grat&colon;:color=red:rj	!
!	!	!	!	!	!	!	!
0B-	Kӱ-	00r	.	00r	.	00r	.
=2-	=2-	=2-	=2-	=2-	=2-	=2-	=2-
!LO:TX:t=P:problem=kreska pseudotaktowa	!	!	!	!	!	!	!
1F	.	.	.	.	.	.	.
1G	-ri-	.	.	.	.	.	.
=3-	=3-	=3-	=3-	=3-	=3-	=3-	=3-
!LO:TX:t=P:problem=kreska pseudotaktowa	!	!	!	!LO:TX:t=P:problem=kreska pseudotaktowa	!	!LO:TX:t=P:problem=kreska pseudotaktowa	!
1G	-e	00r	.	00r	.	0B-	Kӱ-
2r	.	.	.	.	.	.	.
2.D/	e-	.	.	.	.	.	.
=4-	=4-	=4-	=4-	=4-	=4-	=4-	=4-
*	*	*	*	*	*	*lig	*
.	.	.	.	.	.	1F	-ri-
!LO:SIC:v:s=4E-/	!	!	!	!	!	!	!
4E/	-le-	.	.	.	.	.	.
4F\	-ӱ-	.	.	.	.	.	.
!LO:TX:t=P:problem=kreska pseudotaktowa	!	!	!	!	!	!	!
4D/	.	.	.	.	.	.	.
!LO:SIC:v:s=2E-/	!	!	!	!	!	!	!
2E/	.	.	.	.	.	1G	.
2C/	.	.	.	.	.	.	.
*	*	*	*	*	*	*Xlig	*
=5-	=5-	=5-	=5-	=5-	=5-	=5-	=5-
!LO:SIC:v:s=1E-	!	!	!	!	!	!LO:TX:t=P:problem=kreska pseudotaktowa	!
1.E	.	00r	.	0B-	Kӱ-	1G	-e
.	.	.	.	.	.	2r	.
!LO:TX:t=P:problem=kreska pseudotaktowa	!	!	!	!	!	!	!
2D/	.	.	.	.	.	2.d/	E-
=6-	=6-	=6-	=6-	=6-	=6-	=6-	=6-
*	*	*	*	*lig	*	*	*
1D	.	.	.	1F	-ri-	.	.
.	.	.	.	.	.	4e\	-le-
.	.	.	.	.	.	4f\	-ӱ-
!	!	!	!	!	!	!LO:TX:t=P:problem=kreska pseudotaktowa	!
.	.	.	.	.	.	4d\	-ſon:
!	!	!	!	!LO:TX:t=P:problem=kreska pseudotaktowa	!	!	!
2.C/	.	.	.	1G	.	2e\	.
.	.	.	.	.	.	2c/	.
*custos:GG	*	*	*	*	*	*	*
!LO:TX:t=P:problem=kreska pseudotaktowa	!	!	!	!	!	!	!
4BB-/	.	.	.	.	.	.	.
!	!	!	!	!	!	!	!
!	!	!	!	!	!	!	!
*	*	*	*	*Xlig	*	*	*
=7-	=7-	=7-	=7-	=7-	=7-	=7-	=7-
!LO:TX:t=P:problem=kreska pseudotaktowa	!	!	!	!	!	!	!
0GG	-ſon	0B-	Kӱ-	2.G/	-e-	0d	.
.	.	.	.	4F/	.	.	.
.	.	.	.	4G/	.	.	.
.	.	.	.	4A/	.	.	.
.	.	.	.	1B-\	.	.	.
=8-	=8-	=8-	=8-	=8-	=8-	=8-	=8-
*	*ij	*lig	*	*	*	*	*
!	!	!	!	!	!	!LO:TX:t=P:problem=kreska pseudotaktowa	!
1r	.	1F	-ri-	.	.	1c	.
!	!	!	!	!LO:TX:t=P:problem=kreska pseudotaktowa	!	!	!
.	.	.	.	2A/	.	.	.
*	*	*	*	*	*	*	*ij
!LO:SIC:v:s=0E-	!	!LO:TX:t=P:problem=kreska pseudotaktowa	!	!LO:TX:t=P:problem=kreska pseudotaktowa	!	!	!
0E	Kӱ-	1G	.	0.B-	-leӱ-	2.B-/	Kӱ-
.	.	.	.	.	.	4A/	-ri-
*	*	*Xlig	*	*	*	*	*
=9-	=9-	=9-	=9-	=9-	=9-	=9-	=9-
.	.	1G	-e	.	.	2G/	-e
*	*	*	*	*	*	*custos:f	*
!	!	!	!	!	!	!LO:TX:t=P:problem=kreska pseudotaktowa	!
.	.	.	.	.	.	2g\	e-
*lig	*	*	*	*	*	*	*
!	!	!	!	!	!	!LO:LB:g=original	!
1BB-	-ri-	1d	e-	.	.	2f\	.
.	.	.	.	.	.	1d\	-le-
=10-	=10-	=10-	=10-	=10-	=10-	=10-	=10-
!LO:TX:t=P:problem=kreska pseudotaktowa	!	!	!	!LO:TX:t=P:problem=kreska pseudotaktowa	!	!	!
1C	.	0e	-leӱ-	0G	-ſon:	.	.
.	.	.	.	.	.	4c/	-ӱ-
.	.	.	.	.	.	4B-/	.
!	!	!	!	!	!	!LO:TX:t=P:problem=kreska pseudotaktowa	!
*Xlig	*	*	*	*	*	*	*
1C	-e	.	.	.	.	1c	-ſon
=11-	=11-	=11-	=11-	=11-	=11-	=11-	=11-
!	!	!LO:TX:t=P:problem=kreska pseudotaktowa	!	!	!	!LO:TX:t=P:problem=kreska pseudotaktowa	!
2GG/	e-	0d	-ſon:	1r	.	1B-	.
2.G\	-le-	.	.	.	.	.	.
*	*	*	*	*	*ij	*	*
!	!	!	!	!LO:TX:t=P:problem=kreska pseudotaktowa	!	!	!
.	.	.	.	0B-	Kӱ-	2r	.
4F\	.	.	.	.	.	.	.
!LO:TX:t=P:problem=kreska pseudotaktowa	!	!	!	!	!	!	!
2D/	.	.	.	.	.	2f\	Kӱ-
=12-	=12-	=12-	=12-	=12-	=12-	=12-	=12-
!LO:SIC:v:s=2E-	!	!	!	!	!	!	!
2E\	.	2r	.	.	.	2g\	-ri-
4D/	-ӱ-	2.d\	Kӱ-	.	.	1f	-e
4C/	.	.	.	.	.	.	.
!LO:TX:t=P:problem=kreska pseudotaktowa	!	!	!	!	!	!	!
1D	-ſon	.	.	1F	-ri-	.	.
.	.	4c\	.	.	.	.	.
!	!	!LO:TX:t=P:problem=kreska pseudotaktowa	!	!	!	!LO:TX:t=P:problem=kreska pseudotaktowa	!
.	.	2A/	.	.	.	2d\	e-
=13-	=13-	=13-	=13-	=13-	=13-	=13-	=13-
1.C	Kӱ-	2.c\	-ri-	1G	.	2e\	-le-
.	.	.	.	.	.	2c/	-ӱ-
.	.	4B-/	.	.	.	.	.
*	*	*	*	*custos:d	*	*	*
*	*	*custos:b-	*	*	*	*	*
!	!	!	!	!LO:TX:t=P:problem=kreska pseudotaktowa	!	!	!
.	.	2G/	.	1G	-e	2e\	-ſon
!	!	!LO:TX:t=P:problem=kreska pseudotaktowa	!	!	!	!LO:TX:t=P:problem=kreska pseudotaktowa	!
!	!	!LO:LB:g=original	!	!	!	!	!
2GG/	-ri-	2.B-/	-e	.	.	2.d\	Kӱ-
=14-	=14-	=14-	=14-	=14-	=14-	=14-	=14-
!	!	!	!	!LO:LB:g=original	!	!	!
2.BB-/	-e	.	.	2.d\	e-	.	.
.	.	4A/	.	.	.	4c/	-ri-
!	!	!LO:TX:t=P:problem=kreska pseudotaktowa	!	!	!	!LO:TX:t=P:problem=kreska pseudotaktowa	!
.	.	2G/	.	.	.	2B-/	-e
!LO:TX:t=P:problem=kreska pseudotaktowa	!	!	!	!	!	!	!
4C/	e-	.	.	4e\	.	.	.
1D	-leӱ-	2F/	e-	2f\	.	2A/	e-
!	!	!	!	!LO:TX:t=P:problem=kreska pseudotaktowa	!	!	!
.	.	2.A/	-le-	2d\	.	2F/	.
=15-	=15-	=15-	=15-	=15-	=15-	=15-	=15-
!LO:TX:t=P:problem=kreska pseudotaktowa	!	!	!	!	!	!LO:TX:t=P:problem=kreska pseudotaktowa	!
1C	-ſon	.	.	1e	-le-	1c	-le-
*	*Xij	*	*	*	*	*	*
.	.	4G/	.	.	.	.	.
.	.	1G	.	.	.	.	.
2r	.	.	.	1d	.	2B-/	-ӱ-
!	!	!LO:TX:t=P:problem=kreska pseudotaktowa	!	!	!	!	!
2D/	Kӱ-	2F/	-ӱ-	.	.	4A/	-ſon
!	!	!	!	!	!	!LO:TX:t=P:problem=kreska pseudotaktowa	!
.	.	.	.	.	.	4B-/	.
=16-	=16-	=16-	=16-	=16-	=16-	=16-	=16-
!	!	!LO:TX:t=P:problem=kreska pseudotaktowa	!	!	!	!	!
2C/	-ri-	0.G	-ſon	2e\	.	4c/	.
*	*	*	*	*	*	*custos:d	*
.	.	.	.	.	.	4A/	.
*custos:C	*	*	*	*	*	*	*
!LO:TX:t=P:problem=kreska pseudotaktowa	!	!	!	!	!	!LO:LB:g=original	!
2BB-/	-e-	.	.	2d\	.	2.d/	Kӱ-
1C	-le-	.	.	1e	-ӱ-	.	.
.	.	.	.	.	.	4c/	-ri-
.	.	.	.	.	.	1c\	-e
=17-	=17-	=17-	=17-	=17-	=17-	=17-	=17-
!	!	!	!	!LO:TX:t=P:problem=kreska pseudotaktowa	!	!	!
2GG/	-ӱ-	.	.	0d	-ſon	.	.
2.G\	-ſon-	.	.	.	.	4B-/	.
!	!	!	!	!	!	!LO:TX:t=P:problem=kreska pseudotaktowa	!
.	.	.	.	.	.	4A/	.
.	.	2r	.	.	.	2B-/	.
4F\	.	.	.	.	.	.	.
*	*ij	*	*	*	*	*	*
!LO:TX:t=P:problem=kreska pseudotaktowa	!	!	!	!	!	!	!
2D/	-Kӱ-	2d\	Kӱ-	.	.	1A/	e-
*	*	*	*	*	*Xij	*	*
=18-	=18-	=18-	=18-	=18-	=18-	=18-	=18-
2F\	-ri-	2c\	-rie-	0r	.	.	.
!	!	!LO:TX:t=P:problem=kreska pseudotaktowa	!	!	!	!LO:TX:t=P:problem=kreska pseudotaktowa	!
2G\	.	2B-\	-e-	.	.	2G/	.
2F\	.	1c	-leӱ-	.	.	2A/	.
2E/	.	.	.	.	.	1G/	-le-
=19-	=19-	=19-	=19-	=19-	=19-	=19-	=19-
!LO:TX:t=P:problem=kreska pseudotaktowa	!	!LO:TX:t=P:problem=kreska pseudotaktowa	!	!	!	!	!
1D	-e	00d	-ſon	1A	e-	.	.
!	!	!	!	!	!	!LO:TX:t=P:problem=kreska pseudotaktowa	!
.	.	.	.	.	.	2F/	-ӱ-
0r	.	.	.	2G/	.	2G/	.
!	!	!	!	!LO:TX:t=P:problem=kreska pseudotaktowa	!	!	!
.	.	.	.	2F/	.	2A/	-ſon
=20-	=20-	=20-	=20-	=20-	=20-	=20-	=20-
.	.	.	.	1G	.	2.B-/	Kӱ-
!	!	!	!	!	!	!LO:TX:t=P:problem=kreska pseudotaktowa	!
.	.	.	.	.	.	4A/	-ri-
1D	e-	.	.	2.A\	.	2F/	-e
.	.	.	.	.	.	2f\	e-
!	!	!	!	!LO:TX:t=P:problem=kreska pseudotaktowa	!	!	!
.	.	.	.	4B-\	.	.	.
=21-	=21-	=21-	=21-	=21-	=21-	=21-	=21-
2C/	.	2G/	Kӱ-	2c\	.	2e\	-le-
!LO:TX:t=P:problem=kreska pseudotaktowa	!	!	!	!	!	!LO:TX:t=P:problem=kreska pseudotaktowa	!
2BB-/	.	2B-/	-ri-	2d\	.	2d\	-ӱ-
1C	-leӱ-	2A/	-e	1c	-leӱ-	1e	-ſon
.	.	1G/	e-	.	.	.	.
*	*	*	*	*	*	*	*Xij
=22-	=22-	=22-	=22-	=22-	=22-	=22-	=22-
*	*	*	*	*custos:F	*	*custos:d	*
0D;;l	-ſon	.	.	0A;;l	-ſon:	0d;;l	.
.	.	4F/	-le-	.	.	.	.
.	.	4E/	-ӱ-	.	.	.	.
*	*	*custos:A	*	*	*	*	*
.	.	1F;;l	-ſon/	.	.	.	.
=23||	=23||	=23||	=23||	=23||	=23||	=23||	=23||
*M2/1	*Xij	*M2/1	*	*M2/1	*	*M2/1	*
*met(C|)	*	*met(C|)	*	*met(C|)	*	*met(C|)	*
*	*	*k[b-]	*	*k[b-]	*	*k[b-]	*
!LO:TX:t=P:problem=kreska pseudotaktowa	!	!LO:PB:g=original	!	!LO:LB:g=original	!	!LO:TX:t=P:problem=kreska pseudotaktowa	!
1D	Chri-	0A	Chri-	1F	Chri-	00r	.
2D/	.	.	.	2F/	.	.	.
!	!	!	!	!LO:TX:t=P:problem=kreska pseudotaktowa	!	!	!
2.C/	-ſte-	.	.	2.E/	-ſte-	.	.
=24-	=24-	=24-	=24-	=24-	=24-	=24-	=24-
!	!	!LO:TX:t=P:problem=kreska pseudotaktowa	!	!	!	!	!
.	.	1G	.	.	.	.	.
4BB-/	.	.	.	4D/	.	.	.
*custos:AA	*	*	*	*	*	*	*
!LO:TX:t=P:problem=kreska pseudotaktowa	!	!	!	!	!	!	!
2GG/	.	.	.	1D	.	.	.
!LO:LB:g=original	!	!	!	!	!	!	!
1AA	.	1F	-ſte	.	.	.	.
.	.	.	.	2C/	-leӱ-	.	.
=25-	=25-	=25-	=25-	=25-	=25-	=25-	=25-
!	!	!LO:TX:t=P:problem=kreska pseudotaktowa	!	!LO:TX:t=P:problem=kreska pseudotaktowa	!	!	!
2.GG/	.	0.G	e-	1D	-ſon	1d	Chri-
!LO:TX:t=P:problem=kreska pseudotaktowa	!	!	!	!	!	!	!
4AA/	.	.	.	.	.	.	.
2BB-/	.	.	.	1r	.	2d\	.
!	!	!	!	!	!	!LO:TX:t=P:problem=kreska pseudotaktowa	!
4C/	.	.	.	.	.	2.c/	-ſte
!LO:TX:t=P:problem=kreska pseudotaktowa	!	!	!	!	!	!	!
4D/	.	.	.	.	.	.	.
=26-	=26-	=26-	=26-	=26-	=26-	=26-	=26-
!	!	!	!	!LO:TX:t=P:problem=kreska pseudotaktowa	!	!	!
4E\	.	.	.	0r	.	.	.
4F\	.	.	.	.	.	4B-/	.
!	!	!	!	!	!	!LO:TX:t=P:problem=kreska pseudotaktowa	!
1G	.	.	.	.	.	2G/	.
.	.	1D	-ley-	.	.	1A	e-
!LO:TX:t=P:problem=kreska pseudotaktowa	!	!	!	!	!	!	!
2F\	-leӱ-	.	.	.	.	.	.
=27-	=27-	=27-	=27-	=27-	=27-	=27-	=27-
*	*	*	*	*	*ij	*	*
!	!	!	!	!	!	!	!
1G,	-ſon	0d	-ſon;	1B-	Chri-	4G/	-le-
.	.	.	.	.	.	4A/	-ӱ-
.	.	.	.	.	.	4B-/	-ſon:
!	!	!	!	!	!	!LO:TX:t=P:problem=kreska pseudotaktowa	!
.	.	.	.	.	.	4c/	.
*	*ij	*	*	*	*	*	*
2G\	Chri-	.	.	2B-\	-ſte	4d\	.
.	.	.	.	.	.	4e\	.
2.F\	-ſte-	.	.	2.A/	.	1f\	.
=28-	=28-	=28-	=28-	=28-	=28-	=28-	=28-
*	*	*	*ij	*	*	*	*
.	.	1c	e-	.	.	.	.
4E\	.	.	.	4G/	.	.	.
!LO:TX:t=P:problem=kreska pseudotaktowa	!	!	!	!	!	!LO:TX:t=P:problem=kreska pseudotaktowa	!
2C/	-e-	.	.	1G	.	2e\	.
!	!	!LO:TX:t=P:problem=kreska pseudotaktowa	!	!	!	!	!
1D	-leӱ-	1B-	.	.	.	2d/	.
!	!	!	!	!LO:TX:t=P:problem=kreska pseudotaktowa	!	!	!
.	.	.	.	2F/	.	2f\	.
=29-	=29-	=29-	=29-	=29-	=29-	=29-	=29-
!LO:TX:t=P:problem=kreska pseudotaktowa	!	!	!	!	!	!	!
1C	-ſon	0.c	-ley-	1G	.	2e\	.
!	!	!	!	!	!	!LO:TX:t=P:problem=kreska pseudotaktowa	!
.	.	.	.	.	.	2g\	.
0r	.	.	.	2E/	e-	2g\	.
*	*	*	*	*	*	*	*ij
.	.	.	.	4F/	.	2.f\	Chri-
!	!	!	!	!LO:TX:t=P:problem=kreska pseudotaktowa	!	!	!
.	.	.	.	4G/	.	.	.
=30-	=30-	=30-	=30-	=30-	=30-	=30-	=30-
.	.	.	.	4A/	.	.	.
.	.	.	.	4B-\	.	4e\	-ſte
*	*	*	*	*	*	*custos:d	*
!	!	!	!	!	!	!LO:TX:t=P:problem=kreska pseudotaktowa	!
.	.	.	.	1c	-le-	2c/	e-
!	!	!LO:TX:t=P:problem=kreska pseudotaktowa	!	!	!	!LO:TX:t=P:problem=kreska pseudotaktowa	!
!	!	!	!	!	!	!LO:PB:g=original	!
2r	.	1G	-ſon	.	.	1d	-le-
!LO:TX:t=P:problem=kreska pseudotaktowa	!	!	!	!	!	!	!
2G\	Chri-	.	.	4B-\	.	.	.
*	*	*	*	*custos:b-	*	*	*
!	!	!	!	!LO:TX:t=P:problem=kreska pseudotaktowa	!	!	!
.	.	.	.	4A\	.	.	.
=31-	=31-	=31-	=31-	=31-	=31-	=31-	=31-
!	!	!	!	!LO:LB:g=original	!	!	!
2G\	-ſte	0r	.	2B-\	.	2d/	-ӱ-
!	!	!	!	!LO:TX:t=P:problem=kreska pseudotaktowa	!	!	!
2A\	e-	.	.	2c\	.	1c	-ſon
*custos:F	*	*	*	*	*	*	*
!LO:TX:t=P:problem=kreska pseudotaktowa	!	!	!	!	!	!	!
1G	.	.	.	2.d\	-ӱ-	.	.
*	*	*	*	*	*Xij	*	*
.	.	.	.	.	.	1B-/	Chri-
.	.	.	.	4e\	-ſon:	.	.
=32-	=32-	=32-	=32-	=32-	=32-	=32-	=32-
!LO:PB:g=original	!	!	!	!	!	!	!
!LO:TX:t=P:problem=kreska pseudotaktowa	!	!	!	!LO:TX:t=P:problem=kreska pseudotaktowa	!	!	!
00F	-leӱ-	2r	.	0.f	.	.	.
.	.	1c	Chri-	.	.	4A/	-ſte
!	!	!	!	!	!	!LO:TX:t=P:problem=kreska pseudotaktowa	!
.	.	.	.	.	.	4G/	.
.	.	.	.	.	.	4A/	.
.	.	.	.	.	.	4B-/	.
!	!	!LO:TX:t=P:problem=kreska pseudotaktowa	!	!	!	!	!
.	.	2c\	-ſte	.	.	2.c/	e-
=33-	=33-	=33-	=33-	=33-	=33-	=33-	=33-
.	.	1d	e-	.	.	.	.
.	.	.	.	.	.	4B-/	.
.	.	.	.	.	.	1B-	-le-
.	.	1c	-ley-	2r	.	.	.
*	*	*	*	*	*ij	*	*
!	!	!	!	!	!	!LO:TX:t=P:problem=kreska pseudotaktowa	!
.	.	.	.	2F/	Chri -	2A/	-ӱ-
=34-	=34-	=34-	=34-	=34-	=34-	=34-	=34-
!	!	!LO:TX:t=P:problem=kreska pseudotaktowa	!	!	!	!LO:TX:t=P:problem=kreska pseudotaktowa	!
1BB-	-ſon	0B-	-son	2F/	-ſte	1B-	-ſon
*	*	*	*Xij	*	*	*	*
!	!	!	!	!LO:TX:t=P:problem=kreska pseudotaktowa	!	!	!
.	.	.	.	2F/	e-	.	.
!LO:SIC:v:s=1.E-	!	!	!	!	!	!	!
1.E	e-	.	.	1.G	.	2r	.
!	!	!	!	!	!	!LO:TX:t=P:problem=kreska pseudotaktowa	!
.	.	.	.	.	.	2B-/	Chri-
=35-	=35-	=35-	=35-	=35-	=35-	=35-	=35-
.	.	1r	.	.	.	2.B-/	-ſte
2D/	.	.	.	2F/	.	.	.
!	!	!	!	!	!	!LO:TX:t=P:problem=kreska pseudotaktowa	!
.	.	.	.	.	.	4c/	.
!	!	!	!	!LO:TX:t=P:problem=kreska pseudotaktowa	!	!	!
1D	-leӱ-	1B-	Chri-	1F	-le-	4d\	e-
.	.	.	.	.	.	4e\	.
.	.	.	.	.	.	1f\	-le-
=36-	=36-	=36-	=36-	=36-	=36-	=36-	=36-
!LO:TX:t=P:problem=kreska pseudotaktowa	!	!	!	!	!	!	!
0C	-ſon	1.c	.	0G	.	.	.
*	*Xij	*	*	*	*	*	*
.	.	.	.	.	.	4e\	-ӱ-
!	!	!	!	!	!	!LO:TX:t=P:problem=kreska pseudotaktowa	!
.	.	.	.	.	.	4d\	.
.	.	.	.	.	.	4e\	-ſon
*	*	*	*	*	*	*custos:e	*
.	.	.	.	.	.	4f\	.
!	!	!LO:TX:t=P:problem=kreska pseudotaktowa	!	!	!	!LO:LB:g=original	!
.	.	2B-\	-ſte	.	.	2.e\	Chri-
=37-	=37-	=37-	=37-	=37-	=37-	=37-	=37-
*	*	*custos:G	*	*	*	*	*
!	!	!LO:TX:t=P:problem=kreska pseudotaktowa	!	!LO:TX:t=P:problem=kreska pseudotaktowa	!	!	!
1r	.	1A	e-	1F	.	.	.
.	.	.	.	.	.	4d\	.
.	.	.	.	.	.	1d	-ſte
!	!	!LO:LB:g=original	!	!	!	!	!
1G	Chri-	1G	-leӱ-	1E	.	.	.
!	!	!	!	!	!	!LO:TX:t=P:problem=kreska pseudotaktowa	!
!	!	!	!	!	!	!LO:SIC:v:s=2c#/	!
.	.	.	.	.	.	2c/	e-
=38-	=38-	=38-	=38-	=38-	=38-	=38-	=38-
!	!	!LO:TX:t=P:problem=kreska pseudotaktowa	!	!	!	!	!
1.A	.	1F	-ſon,	4D/	.	1d	-le-
.	.	.	.	4E/	.	.	.
.	.	.	.	4F/	.	.	.
!	!	!	!	!LO:TX:t=P:problem=kreska pseudotaktowa	!	!	!
.	.	.	.	4G/	.	.	.
.	.	0r	.	2A/	.	2c/	.
*	*	*	*	*custos:c	*	*	*
!LO:TX:t=P:problem=kreska pseudotaktowa	!	!	!	!LO:TX:t=P:problem=kreska pseudotaktowa	!	!LO:TX:t=P:problem=kreska pseudotaktowa	!
2G\	.	.	.	2B-\	-ӱ-	2B-/	.
=39-	=39-	=39-	=39-	=39-	=39-	=39-	=39-
!	!	!	!	!LO:PB:g=original	!	!	!
1F	-ſte	.	.	2c\	-ſon	1A	.
*	*	*	*ij	*	*Xij	*	*
.	.	.	.	1d	e-	.	.
!LO:TX:t=P:problem=kreska pseudotaktowa	!	!	!	!	!	!LO:TX:t=P:problem=kreska pseudotaktowa	!
1E	.	1G	Chri-	.	.	1G	-ӱ-
!	!	!	!	!LO:TX:t=P:problem=kreska pseudotaktowa	!	!	!
!	!	!	!	!LO:SIC:v:s=2c#\	!	!	!
.	.	.	.	2c\	.	.	.
=40-	=40-	=40-	=40-	=40-	=40-	=40-	=40-
2.D/	e-	1.A	-ſte	1d	.	2F/	-ſon
.	.	.	.	.	.	1f	Chri-
4E/	.	.	.	.	.	.	.
2F\	.	.	.	2.c\	-le-	.	.
!LO:TX:t=P:problem=kreska pseudotaktowa	!	!LO:TX:t=P:problem=kreska pseudotaktowa	!	!	!	!	!
2C/	.	2G/	e-	.	.	2.e\	-ſte
.	.	.	.	4B-/	-ӱ-	.	.
=41-	=41-	=41-	=41-	=41-	=41-	=41-	=41-
1D	.	1F	-le-	00A;	-ſon	.	.
.	.	.	.	.	.	4d\	e-
.	.	.	.	.	.	1d	-le-
1AA	-leӱ-	1E	-ӱ-	.	.	.	.
!	!	!	!	!	!	!LO:SIC:v:s=2c#\	!
.	.	.	.	.	.	2c\	-ӱ-
=42-	=42-	=42-	=42-	=42-	=42-	=42-	=42-
*custos:B-	*	*	*	*	*	*	*
!	!	!	!	!	!	!LO:TX:t=P:problem=kreska pseudotaktowa	!
0D;;l	-ſon:	0D;l	-ſon	.	.	0d;;l	-ſon
=43||	=43||	=43||	=43||	=43||	=43||	=43||	=43||
*M2/1	*	*M2/1	*Xij	*M2/1	*	*M2/1	*Xij
*met(C|)	*	*met(C|)	*	*met(C|)	*	*met(C|)	*
!LO:LB:g=original	!	!	!	!	!	!	!
00r	.	00r	.	00r	.	0f	Kӱ-
=44-	=44-	=44-	=44-	=44-	=44-	=44-	=44-
*	*	*	*	*	*	*lig	*
.	.	.	.	.	.	1c	-ri-
.	.	.	.	.	.	1d	.
*	*	*	*	*	*	*Xlig	*
=45-	=45-	=45-	=45-	=45-	=45-	=45-	=45-
!	!	!	!	!	!	!	!
!LO:TX:t=P:problem=kreska pseudotaktowa	!	!	!	!LO:TX:t=P:problem=kreska pseudotaktowa	!	!LO:TX:t=P:problem=kreska pseudotaktowa	!
0B-	Kӱ-	00r	.	00r	.	1d	-e
*	*	*	*	*	*	*custos:f	*
.	.	.	.	.	.	2r	.
!	!	!	!	!	!	!LO:LB:g=original	!
.	.	.	.	.	.	2.f\	e-
=46-	=46-	=46-	=46-	=46-	=46-	=46-	=46-
!LO:TX:t=P:problem=kreska pseudotaktowa	!	!	!	!	!	!	!
1F	-ri-	.	.	.	.	.	.
!	!	!	!	!	!	!LO:SIC:v:s=4e-\	!
.	.	.	.	.	.	4e\	.
!	!	!	!	!	!	!LO:TX:t=P:problem=kreska pseudotaktowa	!
.	.	.	.	.	.	2c/	.
1G	-e	.	.	.	.	2e-X\	.
.	.	.	.	.	.	2.d\	-le-
=47-	=47-	=47-	=47-	=47-	=47-	=47-	=47-
!	!	!LO:TX:t=P:problem=kreska pseudotaktowa	!	!	!	!	!
2.G\	e-	00r	.	0B-	Kӱ-	.	.
.	.	.	.	.	.	4c/	-ӱ-
.	.	.	.	.	.	4B-/	.
!LO:TX:t=P:problem=kreska pseudotaktowa	!	!	!	!	!	!LO:TX:t=P:problem=kreska pseudotaktowa	!
4F\	.	.	.	.	.	4A/	.
2E/	.	.	.	.	.	2G/	.
4D/	.	.	.	.	.	2.d\	.
!LO:TX:t=P:problem=kreska pseudotaktowa	!	!	!	!	!	!	!
4C/	.	.	.	.	.	.	.
=48-	=48-	=48-	=48-	=48-	=48-	=48-	=48-
*	*	*	*	*lig	*	*	*
1D	.	.	.	1F	-ri-	.	.
.	.	.	.	.	.	4eny\	.
!	!	!	!	!	!	!LO:TX:t=P:problem=kreska pseudotaktowa	!
.	.	.	.	.	.	2f\	.
2.C/	-le-	.	.	1G	.	2e\	.
.	.	.	.	.	.	2c/	-ſon:
4BB-/	-ӱ-	.	.	.	.	.	.
!LO:TX:t=P:problem=kreska pseudotaktowa	!	!	!	!	!	!	!
*	*	*	*	*Xlig	*	*	*
=49-	=49-	=49-	=49-	=49-	=49-	=49-	=49-
!	!	!	!	!	!	!LO:TX:t=P:problem=kreska pseudotaktowa	!
0GG	-ſon	0B-	Kӱ-	1G	-e	1d	.
!	!	!	!	!	!	!	!
*	*	*	*	*lig	*	*	*
!	!	!	!	!LO:TX:a:t=2	!	!	!
.	.	.	.	0d	e-	2r	.
*	*ij	*	*	*	*	*	*ij
.	.	.	.	.	.	1B-/	Kӱ-
=50-	=50-	=50-	=50-	=50-	=50-	=50-	=50-
!	!	!LO:TX:t=P:problem=kreska pseudotaktowa	!	!	!	!	!
1D	Kӱ-	1F	-ri-	.	.	.	.
!	!	!	!	!	!	!LO:TX:t=P:problem=kreska pseudotaktowa	!
.	.	.	.	.	.	2A/	-ri-
!LO:TX:t=P:problem=kreska pseudotaktowa	!	!	!	!LO:TX:a:t=2	!	!	!
1C	-ri-	1G	.	0e	.	1c	-e
*	*	*	*	*Xlig	*	*	*
=51-	=51-	=51-	=51-	=51-	=51-	=51-	=51-
!LO:SIC:v:s=2.E-\	!	!	!	!	!	!	!
2.E\	-e	0G	-e	.	.	1.B-	e-
4D/	e-	.	.	.	.	.	.
2BB-/	-le-	.	.	2d\	.	.	.
!LO:TX:t=P:problem=kreska pseudotaktowa	!	!	!	!	!	!	!
2C/	.	.	.	1c\	.	4A/	.
!	!	!	!	!	!	!LO:TX:t=P:problem=kreska pseudotaktowa	!
.	.	.	.	.	.	4G/	.
=52-	=52-	=52-	=52-	=52-	=52-	=52-	=52-
0D	-ӱ-	0d	e-	.	.	0F	.
.	.	.	.	4B-/	.	.	.
!	!	!	!	!LO:TX:t=P:problem=kreska pseudotaktowa	!	!	!
.	.	.	.	4A/	.	.	.
*	*	*	*	*custos:c	*	*	*
.	.	.	.	1B-	.	.	.
=53-	=53-	=53-	=53-	=53-	=53-	=53-	=53-
*	*	*	*	*	*	*custos:g	*
!LO:TX:t=P:problem=kreska pseudotaktowa	!	!	!	!LO:LB:g=original	!	!LO:TX:t=P:problem=kreska pseudotaktowa	!
0C	-ſon	0e	-leӱ-	1.c	.	1G	.
!	!	!	!	!	!	!LO:LB:g=original	!
.	.	.	.	.	.	1.g	-leӱ-
!	!	!	!	!LO:TX:t=P:problem=kreska pseudotaktowa	!	!	!
.	.	.	.	2G/	.	.	.
=54-	=54-	=54-	=54-	=54-	=54-	=54-	=54-
*custos:D	*	*	*	*	*	*	*
!	!	!LO:TX:t=P:problem=kreska pseudotaktowa	!	!	!	!	!
1G	Kӱ-	0d	-ſon,	1B-	.	.	.
!	!	!	!	!	!	!LO:TX:t=P:problem=kreska pseudotaktowa	!
.	.	.	.	.	.	2d\	-ſon
!LO:LB:g=original	!	!	!	!	!	!	!
1D	-ri-	.	.	0A	.	2.f\	Kӱ-
.	.	.	.	.	.	4e\	-ri-
=55-	=55-	=55-	=55-	=55-	=55-	=55-	=55-
!LO:TX:t=P:problem=kreska pseudotaktowa	!	!	!	!	!	!	!
1F	-e	0r	.	.	.	2c/	-e
.	.	.	.	.	.	1d	e-
1E	e-	.	.	1G	-le-	.	.
!	!	!	!	!	!	!LO:TX:t=P:problem=kreska pseudotaktowa	!
!	!	!	!	!	!	!LO:SIC:v:s=2c#/	!
.	.	.	.	.	.	2c/	-leӱ-
=56-	=56-	=56-	=56-	=56-	=56-	=56-	=56-
*	*	*	*ij	*	*	*	*
*	*	*custos:C	*	*	*	*	*
!	!	!LO:TX:t=P:problem=kreska pseudotaktowa	!	!LO:TX:t=P:problem=kreska pseudotaktowa	!	!	!
2.D/	.	0F	Kӱ-	1A	-ӱ-	1d	-ſon
!LO:TX:t=P:problem=kreska pseudotaktowa	!	!	!	!	!	!	!
4C/	.	.	.	.	.	.	.
2BB-/	.	.	.	2D/	-ſon	2r	.
*	*	*	*	*	*ij	*	*
4AA/	.	.	.	2.A/	Kӱ-	1c\	Kӱ-
4GG/	.	.	.	.	.	.	.
=57-	=57-	=57-	=57-	=57-	=57-	=57-	=57-
!	!	!LO:LB:g=original	!	!	!	!	!
1AA	-leӱ-	1C	-ri-	.	.	.	.
.	.	.	.	4G/	-ri-	.	.
!	!	!	!	!LO:TX:t=P:problem=kreska pseudotaktowa	!	!LO:TX:t=P:problem=kreska pseudotaktowa	!
.	.	.	.	2E/	-e	2A/	.
!LO:TX:t=P:problem=kreska pseudotaktowa	!	!	!	!	!	!	!
1GG	-ſon	1D	.	1G	e-	2.B-/	-ri-
.	.	.	.	.	.	4A/	.
*	*Xij	*	*	*	*	*	*
=58-	=58-	=58-	=58-	=58-	=58-	=58-	=58-
0r	.	0D	-e	2.A/	-le-	2F/	-e
.	.	.	.	.	.	1f	e-
!	!	!	!	!LO:TX:t=P:problem=kreska pseudotaktowa	!	!	!
.	.	.	.	4B-/	.	.	.
.	.	.	.	4A/	.	.	.
.	.	.	.	4D/	-ӱ-	.	.
.	.	.	.	1d\	-ſon	4e\	.
!	!	!	!	!	!	!LO:TX:t=P:problem=kreska pseudotaktowa	!
.	.	.	.	.	.	4d\	.
=59-	=59-	=59-	=59-	=59-	=59-	=59-	=59-
*	*	*lig	*	*	*	*	*
!LO:TX:t=P:problem=kreska pseudotaktowa	!	!LO:TX:a:t=2	!	!	!	!	!
1r	.	0A	e-	.	.	1e	-leӱ-
!	!	!	!	!LO:TX:t=P:problem=kreska pseudotaktowa	!	!	!
.	.	.	.	2c\	.	.	.
1D	Kӱ-	.	.	1.f	Kӱ-	0d	-ſon
=60-	=60-	=60-	=60-	=60-	=60-	=60-	=60-
!	!	!LO:TX:a:t=2	!	!	!	!	!
1G	-ri-	0B-	-leӱ-	.	.	.	.
*	*	*Xlig	*	*	*	*	*
.	.	.	.	4e\	.	.	.
!	!	!	!	!LO:TX:t=P:problem=kreska pseudotaktowa	!	!	!
.	.	.	.	4d\	.	.	.
!LO:TX:t=P:problem=kreska pseudotaktowa	!	!	!	!	!	!LO:TX:t=P:problem=kreska pseudotaktowa	!
1G	-e	.	.	2e\	.	1B-	Kӱ-
*	*	*	*	*custos:f	*	*	*
!	!	!	!	!LO:TX:t=P:problem=kreska pseudotaktowa	!	!	!
.	.	.	.	2d\	.	.	.
=61-	=61-	=61-	=61-	=61-	=61-	=61-	=61-
!	!	!LO:TX:t=P:problem=kreska pseudotaktowa	!	!LO:LB:g=original	!	!	!
1.F	.	0A	-ſon	2.f\	-ri-	1c	-ri-
.	.	.	.	4e\	.	.	.
.	.	.	.	2c\	.	1.f	-e
!LO:TX:t=P:problem=kreska pseudotaktowa	!	!	!	!	!	!	!
2D/	.	.	.	1d\	-e	.	.
*	*	*	*Xij	*	*	*	*
=62-	=62-	=62-	=62-	=62-	=62-	=62-	=62-
0A	.	0r	.	.	.	.	.
.	.	.	.	4c\	.	4e\	e-
*	*	*	*	*	*	*custos:e	*
!	!	!	!	!LO:TX:t=P:problem=kreska pseudotaktowa	!	!LO:TX:t=P:problem=kreska pseudotaktowa	!
.	.	.	.	4B-\	.	4d\	.
!	!	!	!	!	!	!LO:PB:g=original	!
.	.	.	.	1c	.	2e\	-le-
!	!	!	!	!	!	!LO:TX:t=P:problem=kreska pseudotaktowa	!
.	.	.	.	.	.	2f\	-ӱ-
=63-	=63-	=63-	=63-	=63-	=63-	=63-	=63-
2.G\	e-	1B-	Kӱ-	2d\	.	2g\	-ſon
!	!	!	!	!LO:TX:t=P:problem=kreska pseudotaktowa	!	!	!
.	.	.	.	2G/	e-	1d	Kӱ-
8F\L	.	.	.	.	.	.	.
!LO:TX:t=P:problem=kreska pseudotaktowa	!	!	!	!	!	!	!
8E\J	.	.	.	.	.	.	.
!	!	!LO:TX:t=P:problem=kreska pseudotaktowa	!	!	!	!	!
4D/	.	1F	.	2A/	-le-	.	.
*custos:D	*	*	*	*	*	*	*
4C/	.	.	.	.	.	.	.
!LO:LB:g=original	!	!	!	!	!	!LO:TX:t=P:problem=kreska pseudotaktowa	!
2D/	-le-	.	.	2B-\	.	2.f\	-ri-
=64-	=64-	=64-	=64-	=64-	=64-	=64-	=64-
1C	-ӱ-	1G	-ri-	2c\	-ӱ-	.	.
.	.	.	.	.	.	4e\	.
!	!	!	!	!LO:TX:t=P:problem=kreska pseudotaktowa	!	!LO:TX:t=P:problem=kreska pseudotaktowa	!
.	.	.	.	2G/	-ſon	2e\	-e
*	*	*	*	*	*Xij	*	*
2GG/	-ſon	1G	-e	2.B-\	Kӱ-	2.d/	e-
*	*ij	*	*	*	*	*	*
1G\	Kӱ-	.	.	.	.	.	.
.	.	.	.	4A/	.	4c/	.
=65-	=65-	=65-	=65-	=65-	=65-	=65-	=65-
.	.	1d	e-	4G/	-ri-	2B-/	-le-
.	.	.	.	4F/	-e	.	.
!LO:TX:t=P:problem=kreska pseudotaktowa	!	!	!	!LO:TX:t=P:problem=kreska pseudotaktowa	!	!LO:TX:t=P:problem=kreska pseudotaktowa	!
2F\	-ri-	.	.	2.A/	e-	2A/	.
!	!	!LO:TX:t=P:problem=kreska pseudotaktowa	!	!	!	!	!
2E\	-e	1e	-leӱ-	.	.	2B-/	.
.	.	.	.	4G/	.	.	.
2C/	e	.	.	1G/	-le-	2c/	.
=66-	=66-	=66-	=66-	=66-	=66-	=66-	=66-
!	!	!	!	!	!	!LO:TX:t=P:problem=kreska pseudotaktowa	!
1D	lei-	0d	-ſon	.	.	1A	-ӱ-
!	!	!	!	!LO:TX:t=P:problem=kreska pseudotaktowa	!	!	!
.	.	.	.	2F/	-ӱ-	.	.
*	*	*	*	*custos:b-	*	*	*
!LO:TX:t=P:problem=kreska pseudotaktowa	!	!	!	!LO:TX:t=P:problem=kreska pseudotaktowa	!	!	!
1GG	-ſon	.	.	1G	-ſon:	2G/	-ſon
.	.	.	.	.	.	2.g\	Kӱ-
=67-	=67-	=67-	=67-	=67-	=67-	=67-	=67-
*	*	*	*ij	*	*ij	*	*
!	!	!	!	!LO:LB:g=original	!	!	!
2.G\	Kӱ-	2r	.	1B-	Kӱ-	.	.
.	.	.	.	.	.	4f\	.
!	!	!LO:TX:t=P:problem=kreska pseudotaktowa	!	!	!	!LO:TX:t=P:problem=kreska pseudotaktowa	!
.	.	2.d\	Kӱ-	.	.	2d\	.
4F\	.	.	.	.	.	.	.
!	!	!	!	!LO:TX:t=P:problem=kreska pseudotaktowa	!	!	!
2D/	-ri-	.	.	1F	-ri-	2f\	-ri-
.	.	4c\	.	.	.	.	.
!LO:TX:t=P:problem=kreska pseudotaktowa	!	!LO:TX:t=P:problem=kreska pseudotaktowa	!	!	!	!	!
2F\	-e	2A/	.	.	.	2.c/	-e
=68-	=68-	=68-	=68-	=68-	=68-	=68-	=68-
2.C/	e-	2.c\	-ri-	1G	.	.	.
.	.	.	.	.	.	4d\	.
!	!	!	!	!	!	!LO:SIC:v:s=4e-\:t=?	!
.	.	.	.	.	.	4e\	.
*	*	*	*	*	*	*custos:g	*
!	!	!LO:TX:t=P:problem=kreska pseudotaktowa	!	!	!	!LO:TX:t=P:problem=kreska pseudotaktowa	!
4D/	.	4B-\	.	.	.	4f\	.
*	*	*custos:B-	*	*	*	*	*
!LO:SIC:v:s=1E-:t=?	!	!	!	!	!	!LO:LB:g=original	!
1E	-le-	2G/	-e	1G	-e	2g\	.
!	!	!LO:LB:g=original	!	!	!	!LO:TX:t=P:problem=kreska pseudotaktowa	!
.	.	2.B-/	e-	.	.	2G/	e-
=69-	=69-	=69-	=69-	=69-	=69-	=69-	=69-
!LO:TX:t=P:problem=kreska pseudotaktowa	!	!	!	!LO:TX:t=P:problem=kreska pseudotaktowa	!	!	!
1D	-ӱ-	.	.	1d	e-	2B-/	.
.	.	4A/	.	.	.	.	.
!	!	!LO:TX:t=P:problem=kreska pseudotaktowa	!	!	!	!LO:TX:t=P:problem=kreska pseudotaktowa	!
.	.	2F/	-le-	.	.	2A/	.
0C	-ſon	2G/	.	0e	-leӱ-	1c	.
*	*Xij	*	*	*	*	*	*
.	.	2.A/	.	.	.	.	.
=70-	=70-	=70-	=70-	=70-	=70-	=70-	=70-
.	.	.	.	.	.	2c/	-le-
.	.	4G/	.	.	.	.	.
!	!	!LO:TX:t=P:problem=kreska pseudotaktowa	!	!	!	!	!
.	.	2c\	-ӱ-	.	.	1G	-ӱ-
!	!	!	!	!LO:TX:t=P:problem=kreska pseudotaktowa	!	!	!
1GG	Kӱ-	2.B-\	-ſon	1d	-ſon	.	.
.	.	.	.	.	.	1B-/	-ſon
!	!	!LO:TX:t=P:problem=kreska pseudotaktowa	!	!	!	!	!
.	.	4A/	.	.	.	.	.
*	*	*	*Xij	*	*	*	*
=71-	=71-	=71-	=71-	=71-	=71-	=71-	=71-
1.D	-ri-	2F/	e-	2r	.	.	.
.	.	1G	-le-	2.d\	Kӱ-	4A/	.
!	!	!	!	!	!	!LO:TX:t=P:problem=kreska pseudotaktowa	!
.	.	.	.	.	.	4G/	.
.	.	.	.	.	.	1d	e-
.	.	.	.	4c\	-ri-	.	.
!LO:TX:t=P:problem=kreska pseudotaktowa	!	!	!	!LO:TX:t=P:problem=kreska pseudotaktowa	!	!	!
2D/	-e	2F/	-ӱ-	2A/	-e-	.	.
=72-	=72-	=72-	=72-	=72-	=72-	=72-	=72-
!LO:PB:g=original	!	!	!	!	!	!	!
2C/	e-	00G;	-ſon:	2c\	-e-	2e\	-le-
2BB-/	.	.	.	2.d\	.	2d\	.
1C	-ley-	.	.	.	.	1e	-ӱ-
.	.	.	.	4c\	.	.	.
.	.	.	.	1c\	-le-	.	.
=73-	=73-	=73-	=73-	=73-	=73-	=73-	=73-
0GG;;l	-ſon:	.	.	.	.	0d;;l	-ſon
.	.	.	.	4B-\	-ӱ-	.	.
.	.	.	.	4A/	.	.	.
.	.	.	.	1B-;;l	-ſon/	.	.
*	*	*	*	*	*	*	*Xij
==	==	==	==	==	==	==	==
*-	*-	*-	*-	*-	*-	*-	*-
!!!system-decoration: [(s1,s2,s3,s4)]
!!!RDF**kern: l = terminal long
!!!ENC: Mateusz Solarz
!!!END: 2022-02-08
!!!ENC: Krzysztof Stępień
!!!END: 2022-02-11
